X:1
T:[ID 4-48va]
T:[ID 4-48va]
T:Bezeichnung standardisiert: Anglaise Angeloise \"Ahnlich in dieser Quelle: ID 4-5ra  (Anm. S. Wascher);
T:Urheber unbekannt Datum in der hier transkribierten schriftlichen Quelle: 1767
C:Urheber unbekannt
C:Datum in der hier transkribierten schriftlichen Quelle: 1767
L:1/8
M:2/4
K:G
V:1 treble 
V:1
 g2 d2 | B3 G | AA A/B/c/A/ | BG G2 | g2 d2 | B3 G | AA A/B/c/A/ | BG G2 | G2 G,2 :: cc AA | d3 B | %11
 cc AA | B2 G2 | cc AA | d3 B | ce/c/ AF | G2 G,2 :| %17

